bundle/image/pages/questions/img/dialog-submited.svg

<svg width="670" height="371" fill="none" xmlns="http://www.w3.org/2000/svg"><path d="M669.813 304.986H338.776l-45.125 65.918H0V0h581.772l87.474 87.806.567 217.18z" fill="#F8EC2C"/><path d="M669.311 304.486H338.512l-.149.218-44.975 65.7H.5V.5h581.065l87.182 87.513.564 216.473z" stroke="#989898" stroke-opacity=".5"/></svg>

<svg width="670" height="371" viewBox="0 0 670 371" fill="none" xmlns="http://www.w3.org/2000/svg">
<path d="M669.813 304.986H338.776L293.651 370.904H0L0.000244141 0H581.772L669.246 87.806L669.813 304.986Z" fill="#F8EC2C"/>
<path d="M669.311 304.486H338.776H338.512L338.363 304.704L293.388 370.404H0.5L0.500244 0.5H581.565L668.747 88.0132L669.311 304.486Z" stroke="#989898" stroke-opacity="0.5"/>
</svg>
